!!!COM:	Martini, Johannes
!!!CDT:	~1440///-~1497//
!!!OTL:	Domine quis habitabit
!!!AGN:	Motet
!!!SCT:	Mar2038
!!!SCA:	Mar2038
!!!voices:	3
**kern	**kern	**kern
*staff3	*staff2	*staff1
*Ivox	*Ivox	*Ivox
*I"Tenor	*I"Faulx bourdon	*I"Superius
*I'T	*I'Fb	*I'S
*>[A,B,C,D,E,F,G]	*>[A,B,C,D,E,F,G]	*>[A,B,C,D,E,F,G]
*>A	*>A	*>A
*clefGv2	*clefGv2	*clefG2
*k[]	*k[]	*k[]
*M2/1	*M2/1	*M2/1
*met(C)	*met(C)	*met(C)
=1-	=1-	=1-
!!section: Aut quis requiescet
!!!OMD: Aut quis requiescet
!!LO:TX:Z=8:t=Choir 1
1A	1e	1a
2c\	2e\	2a/
2c\	2e\	2a/
=2	=2	=2
2c\	2e\	2a/
2c\	2e\	2a/
1c	1e	1a
=3	=3	=3
1B	1d	1g
1c	1e	1a
=4	=4	=4
2d\	2f\	2b\
1e	1g	1cc
4d\	4f\	4b\
4c\	4e\	4a/
=5	=5	=5
2B\	2d\	2g/
1c	1e	1a
2B\	[2d\	[2g/
=6	=6	=6
1A	2d\]	2g/]
.	2c\	2f#i/
[1G	1d	1g
=7	=7	=7
2G/]	2B\	2e/
1A	1c	1f
2G/	[2B\	[2e/
=8	=8	=8
1F	2B\]	2e/]
.	2A/	2d/
1El	1Bl	1el
=9||	=9||	=9||
*>B	*>B	*>B
!!section: Qui ingreditur
!!!OMD: Qui ingreditur
!!LO:TX:Z=8:t=Choir 2
1A	0r	1a
1B	.	1g
=10	=10	=10
1c	0r	1a
2c\	.	2a/
2c\	.	2a/
=11	=11	=11
1c	0r	1a
1B	.	1g
=12	=12	=12
1A	0r	1f
2.G/	.	2.e/
4A/	.	4f/
=13	=13	=13
2B\	0r	2g/
2c\	.	1a
1B	.	.
.	.	2g#i/
=14	=14	=14
1A	0r	1a
1r	.	1r
=15	=15	=15
1c	0r	1a
1c	.	1a
=16	=16	=16
2c\	0r	2a/
2c\	.	2a/
1B	.	1g
=17	=17	=17
2c\	0r	2a/
2d\	.	2b\
2B\	.	2g/
[2c\	.	[2a/
=18	=18	=18
2c\]	0r	2a/]
4B\	.	4g/
4A/	.	4f/
2G/	.	2e/
[2A/	.	[2f/
=19	=19	=19
2A/]	0r	2f/]
2G/	.	1e
1F	.	.
.	.	2d/
=20	=20	=20
0El	0r	0el
=21||	=21||	=21||
*>C	*>C	*>C
!!section: Qui loquitur
!!!OMD: Qui loquitur
!!LO:TX:Z=8:t=Choir 1
1A	1e	1a
1B	1d	1g
=22	=22	=22
1c	1e	1a
1c	1e	1a
=23	=23	=23
1c	1e	1a
2c\	2e\	2a/
2c\	2e\	2a/
=24	=24	=24
2c\	2e\	2a/
1c	1e	1a
2B\	2d\	2g/
=25	=25	=25
1A	1c	1f
2.G/	2.B\	2.e/
4A/	4c\	4f/
=26	=26	=26
2B\	2d\	2g/
2c\	1e	1a
1B	.	.
.	2d\	2g#i/
=27	=27	=27
1A	1e	1a
1r	1r	1r
=28	=28	=28
1c	1e	1a
2c\	2e\	2a/
2c\	2e\	2a/
=29	=29	=29
2c\	2e\	2a/
2c\	2e\	2a/
1c	1e	1a
=30	=30	=30
1B	1d	1g
1A	1c	1f
=31	=31	=31
2B\	2d\	2g/
1c	1e	1a
4B\	4d\	4g/
4A/	4c\	4f/
=32	=32	=32
2G/	2B\	2e/
1A	1c	1f
2G/	[2B\	[2e/
=33	=33	=33
1F	2B\]	2e/]
.	2A/	2d/
1El	1Bl	1el
=34||	=34||	=34||
*>D	*>D	*>D
!!LO:TX:Z=8:t=Choir 2
!!section: Nec fecit
!!!OMD: Nec fecit
1A	0r	1a
1B	.	1g
=35	=35	=35
1c	0r	1a
1c	.	1a
=36	=36	=36
2c\	0r	2a/
2c\	.	2a/
1c	.	1a
=37	=37	=37
2B\	0r	2g/
2c\	.	2a/
1d	.	1b
=38	=38	=38
1A	0r	1a
1r	.	1r
=39	=39	=39
1c	0r	1a
1c	.	1a
=40	=40	=40
2c\	0r	2a/
2c\	.	2a/
1c	.	1a
=41	=41	=41
2B\	0r	2g/
2A/	.	2f/
1B	.	1g
=42	=42	=42
1c	0r	1a
1c	.	1a
=43	=43	=43
2B\	0r	2g/
1c	.	1a
4B\	.	4g/
4A/	.	4f/
=44	=44	=44
1G	0r	1e
1F	.	1d
=45	=45	=45
2G/	0r	2e/
1A	.	1f
2G/	.	[2e/
=46	=46	=46
1F	0r	2e/]
.	.	2d/
1El	.	1el
=47||	=47||	=47||
*>E	*>E	*>E
!!LO:TX:Z=8:t=Choir 1
!!section: Ad nichilum
!!!OMD: Ad nichilum
1A	1e	1a
1B	1d	1g
=48	=48	=48
1c	1e	1a
1c	1e	1a
=49	=49	=49
1c	1e	1a
2c\	2e\	2a/
2c\	2e\	2a/
=50	=50	=50
2c\	2e\	2a/
1c	1e	1a
[2c\	[2e\	[2a/
=51	=51	=51
2c\]	2e\]	2a/]
2c\	2e\	2a/
1c	1e	1a
=52	=52	=52
1c	1e	1a
1B	1d	1g
=53	=53	=53
2c\	2e\	2a/
1d	1f	1b
2c\	[2e\	[2a/
=54	=54	=54
1B	2e\]	2a/]
.	2d\	2g#i/
1A	1e	1a
=55	=55	=55
1r	1r	1r
2c\	2e\	2a/
2c\	2e\	2a/
=56	=56	=56
2c\	2e\	2a/
2c\	2e\	2a/
1c	1e	1a
=57	=57	=57
1B	1d	1g
1A	1c	1f
=58	=58	=58
2B\	2d\	2g/
1c	1e	1a
4B\	4d\	4g/
4A/	4c\	4f/
=59	=59	=59
2G/	2B\	2e/
1A	1c	1f
2G/	[2B\	[2e/
=60	=60	=60
1F	2B\]	2e/]
.	2A/	2d/
1El	1Bl	1el
=61||	=61||	=61||
*>F	*>F	*>F
!!section: Qui jurat
!!!OMD: Qui jurat
!!LO:TX:Z=8:t=Choir 2
1c	0r	1a
1c	.	1a
=62	=62	=62
1c	0r	1a
2c\	.	2a/
2c\	.	2a/
=63	=63	=63
2c\	0r	2a/
2c\	.	2a/
1c	.	1a
=64	=64	=64
1c	0r	1a
1c	.	1a
=65	=65	=65
2c\	0r	2a/
2c\	.	2a/
1B	.	1g
=66	=66	=66
1r	0r	1r
1c	.	1a
=67	=67	=67
1c	0r	1a
2c\	.	2a/
2c\	.	2a/
=68	=68	=68
2c\	0r	2a/
2c\	.	2a/
1A	.	1a
=69	=69	=69
2c\	0r	2a/
2c\	.	2a/
1c	.	1a
=70	=70	=70
1B	0r	1g
2c\	.	2a/
[2d\	.	[2b\
=71	=71	=71
2d\]	0r	2b\]
2c\	.	1a
1B	.	.
.	.	2g#i/
=72	=72	=72
1A	0r	1a
1r	.	1r
=73	=73	=73
1c	0r	1a
2c\	.	2a/
2c\	.	2a/
=74	=74	=74
1c	0r	1a
1c	.	1a
=75	=75	=75
1B	0r	1g
2c\	.	2a/
2d\	.	2b\
=76	=76	=76
2B\	0r	2g/
1c	.	1a
4B\	.	4g/
4A/	.	4f/
=77	=77	=77
2G/	0r	2e/
1A	.	1f
2G/	.	[2e/
=78	=78	=78
1F	0r	2e/]
.	.	2d/
1El	.	1el
=79||	=79||	=79||
*>G	*>G	*>G
!!section: Qui facit
!!!OMD: Qui facit
!!LO:TX:Z=8:t=Choir 1
1A	1e	1a
2c\	2e\	2a/
[2d\	[2f\	[2b\
=80	=80	=80
2d\]	2f\]	2b\]
2c\	1e	1a
1B	.	.
.	2d\	2g#i/
=81	=81	=81
1A	1e	1a
1r	1r	1r
=82	=82	=82
1c	1e	1a
2c\	2e\	2a/
2c\	2e\	2a/
=83	=83	=83
2c\	2e\	2a/
2c\	2e\	2a/
1c	1e	1a
=84	=84	=84
1B	1d	1g
2c\	2e\	2a/
2d\	2f\	2b\
=85	=85	=85
2B\	2d\	2g/
1c	1e	1a
4B\	4d\	4g/
4A/	4c\	4f/
=86	=86	=86
2G/	2B\	2e/
1A	1c	1f
2G/	[2B\	[2e/
=87	=87	=87
1F	2B\]	2e/]
.	2A/	2d/
1El	1Bl	1el
==	==	==
*-	*-	*-
!!!RDF**kern: l=long note in original notation
!!!RDF**kern: i=editorial accidental
!!!ENC:	Chris Gage 03-25-2014
!!!END:	2014/10/06/
!!!EED:	Jesse Rodin
!!!EEV:	2014/10/17/
!!!ONB:	Translated from MusicXML and edited on 2014/10/17/ by Craig Sapp
!!muse2ps: C^@{COM}^i2I150v85,85,150Q16
